X:1
T:Arizona-Foxtrot
T:Arizona-Foxtrot.
T:A Lily Gabriel.
T:Felix Petyrek.
T:Copyright 1924 by Otto Maass, Wien.
T:Copyright 1924 by Otto Maass, Wien.
T:Copyright 1924 by Otto Maass, Wien.
T:Copyright 1924 by Otto Maass, Wien.
T:Copyright 1924 by Otto Maass, Wien.
C:Felix Petyrek
Z:Copyright 1924 by Otto Maass, Wien.
%%score { ( 1 3 ) | ( 2 4 ) }
L:1/8
Q:1/4=172
M:4/4
K:C
V:1 treble nm="Piano" snm="Pno."
V:3 treble 
V:2 bass 
V:4 bass 
V:1
"^Foxtrot-Tempo."!p!!8va(!{/^g''} .a''2 .a'2{/e''} .f''2 .f'2!8va)! | %1
{/^g'} .a'2 .a2{/^e'} .^f'2 .^f2 | z2!mf! ([=F_A]>[_E_G] [FA]>[EG][_DF]>[EG] | %3
 .[F_A]) z!f! !>!.[f_ac'f']2 !>!.[=a^c'=e'=a']2 z2 | %4
!mf!{/^g'} .[^c'e'a']2 .a2{/e'} .[_a=c'f']2 .f2 |{/^d'} .[=a^c'e']2 .e2{/^b} .[^fac']2 .^c2 | %6
 [^cea]>=ba>g =f>_e_d>e | [A=c=e]2[K:bass] (E,>F,!>(! ^F,>=F, .E,2)!>)! | %8
[K:treble]{/^d'} .[^gbe']2 .e2{/b} .[_e=gc']2 .c2 |{/^a} .[=e^gb]2 .B2{/^f} .[c_e=g]2 .=G2 | %10
 (!>!B,>A, G,>A, .B,2)!f! .[B^dab]2 | .[e^gbe']2!mf! .[Fef]2 .[^Fe^f]2 .[^Gde^g]2 | %12
{/^g'} .[^c'e'a']2 .a2{/e'} .[_a=c'f']2 .f2 |{/^d'} .[=a^c'e']2 .e2{/^b} .[^f^ac']2 .^c2 | %14
 [^ce=a]>=b a>g =f>_e _d>e | .[=A=c=e]2[K:bass]!<(! (E,>F,!<)!!>(! ^F,>=F, .E,2)!>)! | %16
[K:treble]{/^d'} .[^gbe']2 .e2{/b} .[_e=gc']2 .c2 |{/^a} .[=e^gb]2 .B2{/^f} .[c_e=g]2 .=G2 | %18
 (!>!B,>A,G,>A, .B,2)!f! .[B^dab]2 | .[e^gbe']2!mf! .[Fef]2!<(! .[^Fe^f]2 .[^Gde^g]2!<)! | %20
!f! [Aa]8- | [Aa]2 [GBdg]2 [FA=cf]2 [GBdg]2 | [Ee]8- | %23
 [Ee]2!ff!!8va(! !>!g'!>!a' !>!c''!>!a' !>!g'2!8va)! | %24
!p!"_sub." .[^F,CD]2!<(! .[F,CE]2 .[F,CD]2 .[F,CE]2 | .[C_G_A]2 .[CG_B]2 .[CGA]2 .[CGB]2 | %26
 .[=Bf=g]2 .[Bf_a]2 .[Bfg]2 .[Bf=a]2!<)! | %27
!f! !>!.[c'e'g']2 !>!.[_c'_e'_a']2 !>!.[=c'=e'g']2 !>!.[gc'e']2 |!<(! [=A=a]8-!<)! | %29
 [Aa]2 .[GBdg]2 .[FA=cf]2 .[GBdg]2 |!<(! [Ee]8-!<)! | %31
 [Ee]2!ff!!8va(! !>!g'!>!a' !>!c''!>!a'!>!g'!>!e'!8va)! | %32
!p!"_sub." .[^F,CD]2 .[F,CE]2 .[F,CD]2 .[F,CE]2 | .[C_G_A]2 .[CG_B]2 .[CGA]2 .[CGB]2 | %34
!f! .[=Bfg]2 !>![Bf_a]4 .[f=abe']2 | [cegc']2 z2 z4 || %36
!p!!8va(!{/^f''} .g''2 .g'2{/^d''} .e''2 .e'2 |{/b'} .c''2 .c'2{/^g'} .=a'2 .!courtesy!=a2!8va)! | %38
 z2!mf! ([EG]>[DF] [EG]>[DF] [CE]>[DF] | .[EG]2) .[_B,^F^G]2 [=B,=FA]4 | %40
{/^g'} .a'2 .a2{/e'} .f'2 .f2 |{/^g} .a2 .A2{/e} .f2 .F2 | z2 ([DF]>[CE] [DF]>[CE] [_B,D]>[CE] | %43
 .[DF]) z!p! .[C^FA] z !tenuto![CG]4 |!mf!"_cresc."{/^f'} .g'2 .g2{/^d'} .e'2 .e2 | %45
{/^b} .^c'2 .^c2{/^g} .a2 .A2 |!f!"_più"{/a'} ._b'2 ._b2{/^f'} .=g'2 .=g2 | %47
{/c'} ._d'2 ._d2{/a} ._b2 ._B2 | %48
!sfz!!8va(! [a'=b'=d''f''a'']2!8va)!!f! ([FA]>[EG] [FA]>[EG] [=DF]>[EG] | %49
 .[FA]2)!f! ([=fa]>[eg] [fa]>[eg] [df]>[eg] | .[fa]2)!f!!<(! .[^F^f]2 .[Gg]2 .[^G^g]2!<)! | %51
 [Aa]2[K:bass]!sfz!!>(! (_A,>G, ^F,>G, =F,>D,)!>)! || G,8- | G,2 !>!.A,2 !>!.=C2 !>!.=D2 | %54
!<(! E8-!<)! | E2[K:treble]!ff! (!>!^G>^A !>!B>A !>!G2) |!f!"_meno" [B,F=A]2 !>![B,F^G]4 [B,FA]2 | %57
 [=B,F_B]2 [B,FA]4 [B,FB]2 | [B,FA=B]2 [=B,FA_B]4"_cresc." [B,FA=B]2 | [FB^c]2 [FBd]4 [FB^d]2 | %60
!f! !>![Ee]4 !>![Gg]4 |"_cresc." !>![Ff]4 !>![Aa]4 | !>![Gg]4 !>![ceac']4- | %63
 [eac']2 [eac']>d' e'>d' c'>a | [ceg]2!f! (_a>_bc'>b a2) | .[c=eg]2 (!>!_A>_B _c>B A2) | %66
 [=CEG]2 [CE_A]2 [C_E=A]2 [=B,FG=B]2 |!<(! [CEGc]2 [^DGc^d]2 [Ee]2 [^D^G=d^d]2!<)! |!f! a8- | %69
 a2 !>!.[GBdg]2 !>!.[FA=cf]2 !>!.[GBdg]2 | e8- | e2!ff! !>!g!>!a !>!c'!>!a !>!g2 | %72
!p!"_sub." .[^F,CD]2 .[F,CE]2 .[F,CD]2 .[F,CE]2 |!mp!"_cresc." .[C_G_A]2 .[CG_B]2 .[CGA]2 .[CGB]2 | %74
!<(! .[=Bf=g]2 .[Bf_a]2 .[Bfg]2 .[Bf=a]2!<)! | %75
!ff!!8va(! !>!.[c''e''g'']2 !>!.[_c''_e''_a'']2 !>!.[=c''=e''g'']2 .[g'c''e'']2!8va)! | %76
!ff!!<(! =a8-!<)! | a2 .g2 .f2 .g2 |!<(! e8-!<)! | %79
 e2!ff!!8va(! !>!g'"_martell."!>!a' !>!c''!>!a'!>!g'!>!e' | %80
 !>!c'2!8va)! !>!_E!>!F !>!_A!>!F!>!E!>!C | %81
 !>!_A,2!<(! !>![_B,_B]>[=B,=B] !>![Cc]>[^C^c] !>![Dd]>[^D^d]!<)! | %82
!ff! !>![Ee]2 !>![fe'f']2 !>![^fe'^f']2 !>![^gd'e'^g']2 | %83
 [a^c'e'a']2 z2!8va(! !>![a'c''e''a'']2!8va)! z2 |] %84
V:2
 z2[K:treble] .a2 z2 .f2 | z2 .A2 z2 .^F2 | %2
[K:bass]!sfz!!8vb(! [A,,,,_B,,,,=B,,,,] z!8vb)! (_D>_B, D>B,A,>B, | %3
 ._D) z !>!.[F,,_A,,C,F,]2 !>!.[=A,,,^C,,E,,=A,,]2 z2 | %4
 .[A,,,^C,,E,,A,,]2 .[A,^CE]2 .[F,,_A,,=C,F,]2 .[_A,=CF]2 | %5
 .[=A,,^C,E,=A,]2 .[A,^CE]2 .[^F,,A,,^C,^F,]2 .[A,C^F]2 | %6
 .[A,,^C,E,A,]2 .[A,^CE]2 .[=F,,_A,,=C,=F,]2 .[_A,=CF]2 | %7
 [=A,,C,=E,=A,]2!<(! (E,,>F,,!<)! ^F,,>=F,, .E,,2) | %8
 .[E,,^G,,B,,E,]2 .[^G,B,E]2 .[C,,_E,,=G,,C,]2 .[_E,=G,C]2 | %9
 .[=E,,^G,,B,,=E,]2 .[^G,B,E]2 .[=G,,C,_E,=G,]2 .[G,C_E]2 | (!>!B,,>A,, G,,>A,, .B,,2) .[B,,B,]2 | %11
 .[E,,E,]2 .[D,,D,]2!<(! .[C,,B,,]2 .[B,,,B,,]2!<)! | %12
 .[A,,,^C,,E,,A,,]2 .[A,^CE]2 .[F,,_A,,=C,F,]2 .[_A,=CF]2 | %13
 .[=A,,^C,E,=A,]2 .[A,^CE]2 .[^F,,^A,,^C,^F,]2 .[^A,C^F]2 | %14
 .[=A,,^C,E,=A,]2 .[A,^CE]2 .[=F,,_A,,=C,=F,]2 .[_A,=CF]2 | %15
 .[=A,,C,=E,=A,]2 (E,,>F,, ^F,,>=F,, .E,,2) | %16
 .[E,,^G,,B,,E,]2 .[^G,B,E]2 .[C,,_E,,=G,,C,]2 .[_E,=G,C]2 | %17
 .[=E,,^G,,B,,=E,]2 .[^G,B,E]2 .[=G,,C,_E,=G,]2 .[G,C_E]2 | (!>!B,,>A,,G,,>A,, .B,,2) .[B,,B,]2 | %19
 .[E,,E,]2 .[^D,,^D,]2 .[=D,,=D,]2 .[B,,,B,,]2 | [A,,,A,,]2 z2 E,,2 z2 | %21
 [A,,,A,,]2 [B,,,B,,]2 [E,,E,]2 [D,,D,]2 |!<(! [A,,,A,,]2 z2!<)!!>(! [E,,,E,,]2 z2!>)! | %23
 [A,,,A,,]2 !>!G,!>!A, !>!C!>!A,!>!G,!>!E, | .[D,,D,]2 z2 .[A,,,A,,]2 z2 | %25
 .[_A,,,_A,,]2 z2 .[_E,,,_E,,]2 z2 | .[G,,G,]2 z2 .[D,,D,]2 z2 | .[C,,C,]2 z2 .[G,,,G,,]2 z2 | %28
 .[A,,,A,,]2 [A,^CE]2!>(! .[E,,E,]2 [A,=CE]2!>)! | .[A,,,A,,]2 .[B,,,B,,]2 .[E,,E,]2 .[D,,D,]2 | %30
 .[A,,,A,,]2 z2!>(! [E,,,E,,]2 z2!>)! | [A,,,A,,]2 !>!G,!>!A, !>!C!>!A,!>!G,!>!E, | %32
!<(! .[D,,D,]2 z2 .[A,,,A,,]2 z2 | [_A,,,_A,,]2 z2 [_E,,,_E,,]2 z2!<)! | %34
 .[D,,D,]2 z2 .[G,,,G,,]2 z2 | [C,,C,]2!f! !>!_A,!>!G, !>!^F,!>(!!>!G,!>!=F,!>!D,!>)! || %36
 C,2 .[E,G,]2 _A,,2 .[E,G,]2 | C,2 .[E,G,]2 _A,,2 .[E,G,]2 |!sfz! C,,,2 (C>A, C>A, G,>A, | %39
 .C2) .[^C,,^C,]2 ([D,,D,]2 [G,,,G,,]2) | D,2 .[G,B,]2 F,2 .[_A,C]2 | G,2 .[_B,D]2 F,2 .[_A,C]2 | %42
!mf! D,,,2 (B,>G, B,>G, F,>G, | ._B,) z .[^D,,^D,] z E,4 | A,,2 [^C,E,G,A,]2 E,,2 [C,E,G,A,]2 | %45
 A,,2 [^C,E,G,A,]2 E,,2 [C,E,G,A,]2 | _E,,2 [_E,G,_D]2 _B,,,2 [E,G,D]2 | %47
 _E,,2 [_E,G,_D]2 _B,,,2 [E,G,D]2 |!8vb(! [G,,,=B,,,=D,,G,,]2!8vb)! (=B,>A, B,>A, F,>A, | %49
 .B,2) .[^F,,^F,]2 .[G,,G,]2 .[^G,,^G,]2 | .[A,,A,]2 .[_A,,_A,]2 .[G,,G,]2 .[^F,,^F,]2 | %51
 [=F,,=F,]2 (_A,,>G,, ^F,,>G,, =F,,>D,,) || .[C,,C,]2 z2 .[G,,,G,,]2 z2 | %53
 [C,,C,]2 !>![A,,,A,,]2 !>![_A,,,_A,,]2 !>![G,,,G,,]2 | [C,,C,]2 z2!>(! [G,,,G,,]2 z2!>)! | %55
 [C,,C,]2 (!>!^G,>^A, !>!B,>A, !>!G,2) | [=G,,=G,]2 z2 [D,,D,]2 z2 | %57
 [_D,,_D,]2 z2 [_A,,,_A,,]2 z2 | [G,,,G,,]2 z2 [D,,D,]2 z2 | [_A,,_A,]2 z2 [G,,G,]2 z2 | %60
 !>![C,,C,]4 !>![^C,,^C,]4 | !>![D,,D,]4 !>![^D,,^D,]4 | !>![E,,E,]4 !>![^F,,-C,-E,-A,]4 | %63
 [F,,C,E,]4 x4 | [G,,C,E,G,]2 [^F,,C,_E,_A,]6 | [G,,C,=E,G,]2 [_A,,_C,_E,_G,]6 | %66
 [G,,=C,=E,=G,]2 [^F,,^F,]2 [=F,,=F,]2 [D,,D,]2 | [C,,C,]2 z2 [B,,,B,,]2 z2 | %68
 [A,,,A,,]2 z2 E,,2 z2 | .[A,,,A,,]2 .[B,,,B,,]2 .[E,,E,]2 .[D,,D,]2 | %70
 [A,,,A,,]2 z2 [E,,,E,,]2 z2 | [A,,,A,,]2 !>!G,!>!A, !>!C!>!A, !>!G,!>!E, | %72
 .[D,,D,]2 z2 .[A,,,A,,]2 z2 | .[_A,,,_A,,]2 z2 .[_E,,,_E,,]2 z2 | [G,,G,]2 z2 [D,,D,]2 z2 | %75
 [C,,C,]2 z2 [G,,,G,,]2 z2 | .[A,,,A,,]2 z2 .[E,,,E,,]2 z2 | %77
 .[A,,,A,,]2 .[B,,,B,,]2 .[E,,E,]2 .[D,,D,]2 | .[A,,,A,,]2 z2 .[E,,,E,,]2 z2 | %79
 [A,,,A,,]2[K:treble] !>!G!>!A !>!c!>!A!>!G!>!E | !>!C2[K:bass] !>!_E,!>!F, !>!_A,!>!F,!>!E,!>!C, | %81
 !>!_A,,2 !>!_B,,>!>!=B,, !>!C,>!>!^C, !>!D,>!>!^D, | !>!E,2 !>![^D,^D]2 !>![=D,=D]2 !>![B,,B,]2 | %83
 [A,,A,]2 z2!8vb(! !>![A,,,,A,,,]2!8vb)! z2 |] %84
V:3
!8va(! x8!8va)! | x8 | x8 | x8 | x8 | x8 | x8 | x2[K:bass] x6 |[K:treble] x8 | x8 | x8 | x8 | x8 | %13
 x8 | x8 | x2[K:bass] x6 |[K:treble] x8 | x8 | x8 | x8 | [^ce]2 [ce][ce] [=ce]2 [ce][ce] | %21
 [^ce]2 x2 x4 | [Ac]2 [Ac][Ac] !>![A^c]2 [A=c][A^c] | [A=c]2!8va(! x2 x4!8va)! | x8 | x8 | x8 | %27
 x8 | [^ce]2 [ce][ce] [=ce]2 [ce][ce] | [^ce]2 x2 x4 | [Ac]2 [Ac][Ac] [A^c]2 [Ac][Ac] | %31
 [A=c]2!8va(! x2 x4!8va)! | x8 | x8 | x8 | x8 ||!8va(! x8 | x8!8va)! | x8 | x8 | x8 | x8 | x8 | %43
 x8 | x8 | x8 | x8 | x8 |!8va(! x2!8va)! x6 | x8 | x8 | x2[K:bass] x6 || %52
 [C,E,]2 [C,E,][C,E,] [C,_E,]2 [C,E,][C,E,] | [C,=E,]2 [^C,E,]2 [^D,^F,]2 [=F,B,]2 | %54
 [E,G,C]2 .[E,G,C].[E,^G,C] !>!.[E,A,C]2 .[E,A,C].[E,G,C] | [E,=G,C]2[K:treble] x2 x4 | x8 | x8 | %58
 x8 | x8 | z2 [Gc][Gc] z2 [_Be][Be] | z2 [G=B][GB] z2 [c^f][cf] | z2 [ce][ce] z2!ff! !>!c!>!c | %63
 c2 x2 x4 | x2 [c_e]6 | x8 | x8 | x8 |{/e} [A^ce]2 [Ace][Ace] [A=ce]2 [Ace][Ace] | [A^ce]2 x2 x4 | %70
 [EAc]2!<(! [EAc][EAc]!<)!!>(! [EA^c]2 [EA=c][EA^c]!>)! | [EA=c]2 x2 x4 | x8 | x8 | x8 | %75
!8va(! x8!8va)! | [=A^ce]2 [Ace][Ace]!>(! [A=ce]2 [Ace][Ace]!>)! | [A^ce]2 [GBd]2 [FA=c]2 [GBd]2 | %78
 [EAc]2 [EAc][EAc]!>(! [EA^c]2 [EA=c][EA^c]!>)! | [EA=c]2!8va(! x2 x4 | x2!8va)! x6 | x8 | x8 | %83
 x4!8va(! x2!8va)! x2 |] %84
V:4
 x2[K:treble] x6 | x8 |[K:bass]!8vb(! x2!8vb)! x6 | x8 | x8 | x8 | x8 | x8 | x8 | x8 | x8 | x8 | %12
 x8 | x8 | x8 | x8 | x8 | x8 | x8 | x8 | x8 | x8 | x8 | x8 | x8 | x8 | x8 | x8 | x8 | x8 | x8 | %31
 x8 | x8 | x8 | x8 | x8 || C,4 _A,,4 | C,4 _A,,4 | x8 | x8 | D,4 F,4 | G,4 F,4 | x8 | %43
 x4 (E,2 E,,2) | x8 | x8 | x8 | x8 |!8vb(! x2!8vb)! x6 | x8 | x8 | x8 || x8 | x8 | x8 | x8 | x8 | %57
 x8 | x8 | x8 | x8 | x8 | x4 z2 !>!C!>!C | C2 C>D E>D C2 | x8 | x8 | x8 | x8 | x8 | x8 | x8 | x8 | %72
 x8 | x8 | x8 | x8 | x8 | x8 | x8 | x2[K:treble] x6 | x2[K:bass] x6 | x8 | x8 | %83
 x4!8vb(! x2!8vb)! x2 |] %84

